FINK
CUT[MICH ZIEHTS HINAUS]
REG[Europa, Mitteleuropa, Deutschland]
KEY[F0994  16 Eb 2/4]
MEL[5_  3_.23_5_  3_.23_
    5_  4__3_2_  3__0_
    5_  3_.23_5_  3_.23_
    5_  7__6_4#_  5__0_
    5_  +2__7_5_  +1_.
    53_5_  +2__7_5_  +1__0_
    +1_  6_.6+1_6_  5_.
    5+1_5_  5__4_2_  1__0_
    5_  +2__7_5_  +1_.
    53_5_  +2__7_5_  +1__0_
    +1_  6_.6+1_6_  5_.
    5+1_5_  5__4_2_  1__0_ //] >>
FCT[Natur - Lied]
